app/dist/common/images/first-bancorp.svg

<svg height="18" viewBox="0 0 18 18" width="18" xmlns="http://www.w3.org/2000/svg"><path d="m0 0h18v18h-18z" fill="#b62032"/><path d="m4 12v-6h5v1h-4v2h3v1h-3v2zm7-2.5h1.77c.67 0 1.14.27 1.14.68v.02c0 .45-.52.8-1.11.8h-1.8zm1.74-2.5c.55 0 .86.37.86.77v.03c0 .45-.36.7-.93.7h-1.67v-1.5zm0-1h-2.74v6h2.8c1.32 0 2.2-.55 2.2-1.65 0-.83-.4-1.23-1.09-1.48.43-.25.76-.62.76-1.3v-.02c0-.4-.12-.75-.4-1.02a2.13 2.13 0 0 0 -1.52-.53z" fill="#fff"/></svg>

<!-- by TradingView --><svg width="18" height="18" viewBox="0 0 18 18" xmlns="http://www.w3.org/2000/svg"><path fill="#B62032" d="M0 0h18v18H0z"/><path d="M4 12V6h5v1H5v2h3v1H5v2H4Zm7-2.5h1.77c.67 0 1.14.27 1.14.68v.02c0 .45-.52.8-1.11.8H11V9.5ZM12.74 7c.55 0 .86.37.86.77v.03c0 .45-.36.7-.93.7H11V7h1.74Zm0-1H10v6h2.8c1.32 0 2.2-.55 2.2-1.65 0-.83-.4-1.23-1.09-1.48.43-.25.76-.62.76-1.3v-.02c0-.4-.12-.75-.4-1.02A2.13 2.13 0 0 0 12.75 6Z" fill="#fff"/></svg>
